X:21
M:C
L:1/8
K:G
gdBG c2 A>c | B>gd>B c>AF>A | G2 G>G G2::B>c | d2 B>c d2 e>f | g2 e>f g2 B>c |
d2 B>c d2 cB | AGFE D2 B>c | d2 B>c d2 e>f | g2 e>f g2 A>c | B>gd>B c>AF>A | G2 G>G G2 :|

